X: 22430
T: Lads And Lasses
R: three-two
M: 3/2
K: Gmajor
|:G4 GAB2 A2GA|B2d2 d2g2 e4|d2ed c2dc B3c|B2D2 GAB2 A2G2:|
A4 FGA2 d2AG|F2A2 A2d2 B4|g2ag f2e2 _e2=e2|B2b2 a2g2 f2e2|
g4 Bcd2 Bcd2|e4 EFG2 F2ED|G2FG A2GA B2dc|B2e2 ABc2 B2A2||G4- G4 z4||

